NotoEmoji/emoji_u1f6c5.svg

<svg enable-background="new 0 0 128 128" viewBox="0 0 128 128" xmlns="http://www.w3.org/2000/svg"><path d="m116 4h-104c-4.42 0-8 3.58-8 8v104c0 4.42 3.58 8 8 8h104c4.42 0 8-3.58 8-8v-104c0-4.42-3.58-8-8-8z" fill="#194fa5"/><path d="m109.7 4h-98.2c-4.13.03-7.47 3.37-7.5 7.5v97.9c-.01 4.14 3.34 7.49 7.48 7.5h.02 98.1c4.14.01 7.49-3.34 7.5-7.48 0-.01 0-.01 0-.02v-97.9c.09-4.05-3.13-7.41-7.18-7.5-.07 0-.15 0-.22 0z" fill="#2262dd"/><path d="m39.7 12.9c0-2.3-1.6-3-10.8-2.7-7.7.3-11.5 1.2-13.8 4-2.1 2.56-5.24 14.3-2.43 16.49.99.77 2.39.84 3.59.48 3.12-.93 3.95-4.27 5.88-6.52 2.01-2.35 4.54-4.11 7.22-5.6 1.81-1.01 10.34-3.53 10.34-6.15z" fill="#68abe6"/><g fill="#fafafa"><path d="m101 38c1.65 0 3 1.35 3 3v60c0 1.65-1.35 3-3 3h-80c-1.65 0-3-1.35-3-3v-60c0-1.65 1.35-3 3-3zm0-5h-80c-4.42 0-8 3.58-8 8v60c0 4.42 3.58 8 8 8h80c4.42 0 8-3.58 8-8v-60c0-4.42-3.58-8-8-8z"/><path d="m76 53h-3v-8c0-2.21-1.79-4-4-4h-16c-2.21 0-4 1.79-4 4v8h-3c-.55 0-1 .45-1 1v42c0 .55.45 1 1 1h30c.55 0 1-.45 1-1v-42c0-.55-.45-1-1-1zm-22-8h14c.55 0 1 .45 1 1v6c0 .55-.45 1-1 1h-14c-.55 0-1-.45-1-1v-6c0-.55.45-1 1-1z"/><path d="m40 53h-7c-4.42 0-8 3.58-8 8v28c0 4.42 3.58 8 8 8h7c.55 0 1-.45 1-1v-42c0-.55-.45-1-1-1z"/><path d="m89 53h-7c-.55 0-1 .45-1 1v42c0 .55.45 1 1 1h7c4.42 0 8-3.58 8-8v-28c0-4.42-3.58-8-8-8z"/><path d="m79 19h-22.26c-.89-3.45-4.01-6-7.74-6-4.42 0-8 3.58-8 8s3.58 8 8 8c3.73 0 6.85-2.55 7.74-6h6.26v4c0 1.1.9 2 2 2s2-.9 2-2v-4h4v4c0 1.1.9 2 2 2s2-.9 2-2v-4h4c1.1 0 2-.9 2-2s-.9-2-2-2zm-30 6c-2.21 0-4-1.79-4-4s1.79-4 4-4 4 1.79 4 4-1.79 4-4 4z"/></g></svg>

<?xml version="1.0" encoding="utf-8"?>
<!-- Generator: Adobe Illustrator 25.2.3, SVG Export Plug-In . SVG Version: 6.00 Build 0)  -->
<svg version="1.1" id="Layer_2" xmlns="http://www.w3.org/2000/svg" xmlns:xlink="http://www.w3.org/1999/xlink" x="0px" y="0px"
	 viewBox="0 0 128 128" style="enable-background:new 0 0 128 128;" xml:space="preserve">
<g>
	<path style="fill:#194FA5;" d="M116,4H12c-4.42,0-8,3.58-8,8v104c0,4.42,3.58,8,8,8h104c4.42,0,8-3.58,8-8V12
		C124,7.58,120.42,4,116,4z"/>
	<path style="fill:#2262DD;" d="M109.7,4H11.5C7.37,4.03,4.03,7.37,4,11.5v97.9c-0.01,4.14,3.34,7.49,7.48,7.5c0.01,0,0.01,0,0.02,0
		h98.1c4.14,0.01,7.49-3.34,7.5-7.48c0-0.01,0-0.01,0-0.02V11.5c0.09-4.05-3.13-7.41-7.18-7.5C109.85,4,109.77,4,109.7,4z"/>
	<path style="fill:#68ABE6;" d="M39.7,12.9c0-2.3-1.6-3-10.8-2.7c-7.7,0.3-11.5,1.2-13.8,4c-2.1,2.56-5.24,14.3-2.43,16.49
		c0.99,0.77,2.39,0.84,3.59,0.48c3.12-0.93,3.95-4.27,5.88-6.52c2.01-2.35,4.54-4.11,7.22-5.6C31.17,18.04,39.7,15.52,39.7,12.9z"/>
	<g>
		<path style="fill:#FAFAFA;" d="M101,38c1.65,0,3,1.35,3,3v60c0,1.65-1.35,3-3,3H21c-1.65,0-3-1.35-3-3V41c0-1.65,1.35-3,3-3H101
			 M101,33H21c-4.42,0-8,3.58-8,8v60c0,4.42,3.58,8,8,8h80c4.42,0,8-3.58,8-8V41C109,36.58,105.42,33,101,33z"/>
		<path style="fill:#FAFAFA;" d="M76,53h-3v-8c0-2.21-1.79-4-4-4H53c-2.21,0-4,1.79-4,4v8h-3c-0.55,0-1,0.45-1,1v42
			c0,0.55,0.45,1,1,1h30c0.55,0,1-0.45,1-1V54C77,53.45,76.55,53,76,53z M54,45h14c0.55,0,1,0.45,1,1v6c0,0.55-0.45,1-1,1H54
			c-0.55,0-1-0.45-1-1v-6C53,45.45,53.45,45,54,45z"/>
		<path style="fill:#FAFAFA;" d="M40,53h-7c-4.42,0-8,3.58-8,8v28c0,4.42,3.58,8,8,8h7c0.55,0,1-0.45,1-1V54
			C41,53.45,40.55,53,40,53z"/>
		<path style="fill:#FAFAFA;" d="M89,53h-7c-0.55,0-1,0.45-1,1v42c0,0.55,0.45,1,1,1h7c4.42,0,8-3.58,8-8V61
			C97,56.58,93.42,53,89,53z"/>
		<path style="fill:#FAFAFA;" d="M79,19H56.74c-0.89-3.45-4.01-6-7.74-6c-4.42,0-8,3.58-8,8s3.58,8,8,8c3.73,0,6.85-2.55,7.74-6H63
			v4c0,1.1,0.9,2,2,2s2-0.9,2-2v-4h4v4c0,1.1,0.9,2,2,2s2-0.9,2-2v-4h4c1.1,0,2-0.9,2-2S80.1,19,79,19z M49,25c-2.21,0-4-1.79-4-4
			s1.79-4,4-4s4,1.79,4,4S51.21,25,49,25z"/>
	</g>
</g>
</svg>
